src/assets/Frame1.svg

<svg width="24" height="24" viewBox="0 0 24 24" fill="none" xmlns="http://www.w3.org/2000/svg">
<g clip-path="url(#clip0_297_792)">
<path d="M3.24375 5.39531L5.73984 2.90156C5.91592 2.72471 6.1252 2.58439 6.35567 2.48867C6.58614 2.39294 6.83325 2.34369 7.08281 2.34375C7.5914 2.34375 8.06953 2.54297 8.42812 2.90156L11.1141 5.5875C11.2909 5.76358 11.4312 5.97286 11.527 6.20333C11.6227 6.4338 11.6719 6.68091 11.6719 6.93047C11.6719 7.43906 11.4727 7.91719 11.1141 8.27578L9.15 10.2398C9.60974 11.2532 10.2489 12.175 11.0367 12.9609C11.8225 13.7506 12.7443 14.3922 13.7578 14.8547L15.7219 12.8906C15.898 12.7138 16.1072 12.5735 16.3377 12.4777C16.5682 12.382 16.8153 12.3328 17.0648 12.3328C17.5734 12.3328 18.0516 12.532 18.4102 12.8906L21.0984 15.5742C21.2755 15.7506 21.4159 15.9603 21.5117 16.1912C21.6074 16.4221 21.6565 16.6696 21.6562 16.9195C21.6562 17.4281 21.457 17.9062 21.0984 18.2648L18.607 20.7562C18.0352 21.3305 17.2453 21.6562 16.4344 21.6562C16.2633 21.6562 16.0992 21.6422 15.9375 21.6141C12.7781 21.0938 9.64453 19.4133 7.11562 16.8867C4.58906 14.3625 2.91094 11.2312 2.38359 8.0625C2.22422 7.09453 2.54531 6.09844 3.24375 5.39531Z" fill="#325FEC"/>
</g>
<defs>
<clipPath id="clip0_297_792">
<rect width="24" height="24" fill="white" transform="matrix(-1 0 0 1 24 0)"/>
</clipPath>
</defs>
</svg>

<svg xmlns="http://www.w3.org/2000/svg" width="24" height="24" fill="none"><g clip-path="url(#a)"><path fill="#325FEC" d="M3.244 5.395 5.74 2.902a1.894 1.894 0 0 1 2.688 0l2.686 2.686a1.896 1.896 0 0 1 0 2.688L9.15 10.24a9.2 9.2 0 0 0 1.887 2.72 9.3 9.3 0 0 0 2.72 1.895l1.965-1.964a1.896 1.896 0 0 1 2.688 0l2.688 2.683a1.897 1.897 0 0 1 0 2.69l-2.491 2.492a3.08 3.08 0 0 1-2.67.858c-3.159-.52-6.292-2.2-8.821-4.727-2.527-2.524-4.205-5.656-4.732-8.824a3.09 3.09 0 0 1 .86-2.668"/></g><defs><clipPath id="a"><path fill="#fff" d="M24 0H0v24h24z"/></clipPath></defs></svg>
